icons/id-square.svg

<svg xmlns="http://www.w3.org/2000/svg" viewBox="0 0 24 24" fill="currentColor">
  <path d="M3.75 9c0-1.28579.96421-2.25 2.25-2.25h12c1.2858 0 2.25.96421 2.25 2.25v6c0 1.1858-1.0642 2.25-2.25 2.25H6c-1.28579 0-2.25-.9642-2.25-2.25V9ZM6 5.25C3.88579 5.25 2.25 6.88579 2.25 9v6c0 2.1142 1.63579 3.75 3.75 3.75h12c2.0142 0 3.75-1.7358 3.75-3.75V9c0-2.11421-1.6358-3.75-3.75-3.75H6Zm8.7 4.5c-.4143 0-.75.3358-.75.75s.3357.75.75.75h3c.4142 0 .75-.3358.75-.75s-.3358-.75-.75-.75h-3Zm-.75 3.75c0-.4142.3357-.75.75-.75h3c.4142 0 .75.3358.75.75s-.3358.75-.75.75h-3c-.4143 0-.75-.3358-.75-.75Zm-7.00005-3c0-.1296.03992-.1793.05533-.1947.01542-.0154.06511-.0553.19467-.0553H10.2c.1295 0 .1792.0399.1946.0553.0154.0154.0554.0651.0554.1947v3c0 .0546-.0242.1232-.0733.1758-.0421.0451-.0974.0742-.1767.0742H7.19995c-.12956 0-.17925-.0399-.19467-.0553-.01541-.0154-.05533-.0651-.05533-.1947v-3Zm.25-1.75c-.47043 0-.92074.16009-1.25533.49467-.33458.33458-.49467.78493-.49467 1.25533v3c0 .4704.16009.9207.49467 1.2553.33459.3346.7849.4947 1.25533.4947H10.2c1.0621 0 1.75-.8854 1.75-1.75v-3c0-.4704-.1601-.92075-.4947-1.25533C11.1207 8.91009 10.6704 8.75 10.2 8.75H7.19995Z"/>
</svg>

<svg width="24" height="24" viewBox="0 0 24 24" fill="none" xmlns="http://www.w3.org/2000/svg">
<path fill-rule="evenodd" clip-rule="evenodd" d="M3.75 9C3.75 7.71421 4.71421 6.75 6 6.75H18C19.2858 6.75 20.25 7.71421 20.25 9V15C20.25 16.1858 19.1858 17.25 18 17.25H6C4.71421 17.25 3.75 16.2858 3.75 15V9ZM6 5.25C3.88579 5.25 2.25 6.88579 2.25 9V15C2.25 17.1142 3.88579 18.75 6 18.75H18C20.0142 18.75 21.75 17.0142 21.75 15V9C21.75 6.88579 20.1142 5.25 18 5.25H6ZM14.7 9.75C14.2857 9.75 13.95 10.0858 13.95 10.5C13.95 10.9142 14.2857 11.25 14.7 11.25H17.7C18.1142 11.25 18.45 10.9142 18.45 10.5C18.45 10.0858 18.1142 9.75 17.7 9.75H14.7ZM13.95 13.5C13.95 13.0858 14.2857 12.75 14.7 12.75H17.7C18.1142 12.75 18.45 13.0858 18.45 13.5C18.45 13.9142 18.1142 14.25 17.7 14.25H14.7C14.2857 14.25 13.95 13.9142 13.95 13.5ZM6.94995 10.5C6.94995 10.3704 6.98987 10.3207 7.00528 10.3053C7.0207 10.2899 7.07039 10.25 7.19995 10.25H10.2C10.3295 10.25 10.3792 10.2899 10.3946 10.3053C10.41 10.3207 10.45 10.3704 10.45 10.5V13.5C10.45 13.5546 10.4258 13.6232 10.3767 13.6758C10.3346 13.7209 10.2793 13.75 10.2 13.75H7.19995C7.07039 13.75 7.0207 13.7101 7.00528 13.6947C6.98987 13.6793 6.94995 13.6296 6.94995 13.5V10.5ZM7.19995 8.75C6.72952 8.75 6.27921 8.91009 5.94462 9.24467C5.61004 9.57925 5.44995 10.0296 5.44995 10.5V13.5C5.44995 13.9704 5.61004 14.4207 5.94462 14.7553C6.27921 15.0899 6.72952 15.25 7.19995 15.25H10.2C11.2621 15.25 11.95 14.3646 11.95 13.5V10.5C11.95 10.0296 11.7899 9.57925 11.4553 9.24467C11.1207 8.91009 10.6704 8.75 10.2 8.75H7.19995Z" fill="black"/>
</svg>
